src/svgs/user.svg

<svg fill="none" height="30" viewBox="0 0 30 30" width="30" xmlns="http://www.w3.org/2000/svg" xmlns:xlink="http://www.w3.org/1999/xlink"><clipPath id="a"><path d="m0 0h30v30h-30z"/></clipPath><g clip-path="url(#a)" fill="#fff"><path d="m15 0c-8.28418 0-15 6.71582-15 15 0 8.2842 6.71582 15 15 15 .4519 0 .9021-.0203 1.3501-.0605.4165-.0374.8293-.0945 1.239-.1661l.1575-.0278c7.6164-1.4214 12.8974-8.4094 12.185-16.1248-.7124-7.71528-7.1836-13.61835859-14.9316-13.6208zm-1.2051 28.947h-.0354c-.3889-.0344-.7749-.0864-1.1574-.1531-.022-.0039-.044-.0063-.0655-.0105-.374-.0668-.7441-.1499-1.1106-.2468l-.0886-.0227c-.3574-.0969-.7109-.2095-1.0593-.3345-.0362-.0129-.0725-.0244-.1087-.0378-.34152-.1255-.67697-.2661-1.00729-.4182-.04102-.0183-.08203-.0359-.12305-.0554-.32397-.1499-.6416-.3189-.95312-.4966-.04395-.0249-.08838-.0498-.13233-.0745-.30664-.1789-.6062-.3708-.90014-.5735-.04444-.031-.08936-.061-.13355-.092-.28882-.2048-.57031-.4224-.84448-.6499l-.07544-.0659v-4.2156c.00366-3.0361 2.46387-5.4963 5.5-5.5h7c3.0361.0037 5.4963 2.4639 5.5 5.5v4.2161l-.0664.0554c-.2795.2334-.5664.4541-.8611.6626-.0391.0273-.0786.0534-.1174.0803-.2974.2065-.6021.4009-.9141.5835-.039.0227-.0791.0442-.1179.0667-.3162.1799-.6377.3498-.9656.5029-.0376.0176-.0754.0339-.1135.05-.333.1536-.6714.295-1.0154.4214-.0342.0127-.0686.0237-.1001.0357-.3501.1254-.7051.239-1.0644.3364l-.0862.0215c-.367.0969-.7373.1804-1.1118.2475-.0215.0039-.043.0066-.0645.01-.383.0669-.7695.1189-1.1587.1536h-.0354c-.3999.0344-.8.053-1.2051.053-.405 0-.8083-.0152-1.2075-.0496zm11.2051-4.1579v-3.2891c-.0042-3.5881-2.9119-6.4958-6.5-6.5h-7c-3.58813.0042-6.49585 2.9119-6.5 6.5v3.2886c-5.385254-5.4964-5.325195-14.3086.13428-19.73123 5.45952-5.42236 14.27192-5.42236 19.73142 0 5.4595 5.42263 5.5196 14.23483.1343 19.73123z"/><path d="m15 4c-2.7615 0-5 2.23853-5 5 0 2.7615 2.2385 5 5 5s5-2.2385 5-5c-.0029-2.76025-2.2397-4.99707-5-5zm0 9c-2.2092 0-4-1.7908-4-4 0-2.20923 1.7908-4 4-4s4 1.79077 4 4c-.0024 2.208-1.792 3.9976-4 4z"/></g></svg>

<svg width="30" height="30" viewBox="0 0 30 30" fill="none" xmlns="http://www.w3.org/2000/svg">
<g clip-path="url(#clip0)">
<path d="M15 0C6.71582 0 0 6.71582 0 15C0 23.2842 6.71582 30 15 30C15.4519 30 15.9021 29.9797 16.3501 29.9395C16.7666 29.9021 17.1794 29.845 17.5891 29.7734L17.7466 29.7456C25.363 28.3242 30.644 21.3362 29.9316 13.6208C29.2192 5.90552 22.748 0.00244141 15 0V0ZM13.7949 28.947H13.7595C13.3706 28.9126 12.9846 28.8606 12.6021 28.7939C12.5801 28.79 12.5581 28.7876 12.5366 28.7834C12.1626 28.7166 11.7925 28.6335 11.426 28.5366L11.3374 28.5139C10.98 28.417 10.6265 28.3044 10.2781 28.1794C10.2419 28.1665 10.2056 28.155 10.1694 28.1416C9.82788 28.0161 9.49243 27.8755 9.16211 27.7234C9.12109 27.7051 9.08008 27.6875 9.03906 27.668C8.71509 27.5181 8.39746 27.3491 8.08594 27.1714C8.04199 27.1465 7.99756 27.1216 7.95361 27.0969C7.64697 26.918 7.34741 26.7261 7.05347 26.5234C7.00903 26.4924 6.96411 26.4624 6.91992 26.4314C6.6311 26.2266 6.34961 26.009 6.07544 25.7815L6 25.7156V21.5C6.00366 18.4639 8.46387 16.0037 11.5 16H18.5C21.5361 16.0037 23.9963 18.4639 24 21.5V25.7161L23.9336 25.7715C23.6541 26.0049 23.3672 26.2256 23.0725 26.4341C23.0334 26.4614 22.9939 26.4875 22.9551 26.5144C22.6577 26.7209 22.353 26.9153 22.041 27.0979C22.002 27.1206 21.9619 27.1421 21.9231 27.1646C21.6069 27.3445 21.2854 27.5144 20.9575 27.6675C20.9199 27.6851 20.8821 27.7014 20.844 27.7175C20.511 27.8711 20.1726 28.0125 19.8286 28.1389C19.7944 28.1516 19.76 28.1626 19.7285 28.1746C19.3784 28.3 19.0234 28.4136 18.6641 28.511L18.5779 28.5325C18.2109 28.6294 17.8406 28.7129 17.4661 28.78C17.4446 28.7839 17.4231 28.7866 17.4016 28.79C17.0186 28.8569 16.6321 28.9089 16.2429 28.9436H16.2075C15.8076 28.978 15.4075 28.9966 15.0024 28.9966C14.5974 28.9966 14.1941 28.9814 13.7949 28.947ZM25 24.7891V21.5C24.9958 17.9119 22.0881 15.0042 18.5 15H11.5C7.91187 15.0042 5.00415 17.9119 5 21.5V24.7886C-0.385254 19.2922 -0.325195 10.48 5.13428 5.05737C10.5938 -0.36499 19.4062 -0.36499 24.8657 5.05737C30.3252 10.48 30.3853 19.2922 25 24.7886V24.7891Z" fill="white"/>
<path d="M15 4C12.2385 4 10 6.23853 10 9C10 11.7615 12.2385 14 15 14C17.7615 14 20 11.7615 20 9C19.9971 6.23975 17.7603 4.00293 15 4ZM15 13C12.7908 13 11 11.2092 11 9C11 6.79077 12.7908 5 15 5C17.2092 5 19 6.79077 19 9C18.9976 11.208 17.208 12.9976 15 13Z" fill="white"/>
</g>
<defs>
<clipPath id="clip0">
<rect width="30" height="30" fill="white"/>
</clipPath>
</defs>
</svg>
